X: 21593
Q: "Printed for the first time."
M: C
L: 1/8
K: D
d<df>d B>ee>f | d>df>d a>df>d |\
g>ef>d B>ee>f | d<d {de}f>e d>AA>f |
d<df>d B>ee>f | (3(def) (3(efg) (3(fed) (3(cBA) |\
(3(Bcd) (3(AFD) B,>EE>F | D<D {EF}F>E DA,A, |]


